images_elementary_svg/cmd/lc_strikeout.svg

<?xml version="1.0" encoding="UTF-8" standalone="no"?>
<svg
   xmlns:dc="http://purl.org/dc/elements/1.1/"
   xmlns:cc="http://creativecommons.org/ns#"
   xmlns:rdf="http://www.w3.org/1999/02/22-rdf-syntax-ns#"
   xmlns:svg="http://www.w3.org/2000/svg"
   xmlns="http://www.w3.org/2000/svg"
   xmlns:xlink="http://www.w3.org/1999/xlink"
   xmlns:sodipodi="http://sodipodi.sourceforge.net/DTD/sodipodi-0.dtd"
   xmlns:inkscape="http://www.inkscape.org/namespaces/inkscape"
   height="24"
   width="24"
   version="1.1"
   id="svg22"
   sodipodi:docname="lc_strikeout.svg"
   inkscape:version="0.92.3 (unknown)">
  <metadata
     id="metadata28">
    <rdf:RDF>
      <cc:Work
         rdf:about="">
        <dc:format>image/svg+xml</dc:format>
        <dc:type
           rdf:resource="http://purl.org/dc/dcmitype/StillImage" />
      </cc:Work>
    </rdf:RDF>
  </metadata>
  <defs
     id="defs26">
    <radialGradient
       inkscape:collect="always"
       xlink:href="#linearGradient2867-449-88-871-390-598-476-591-434-148-57-177-641-289-620-227-114-444-680-744-4-1-5"
       id="radialGradient871"
       cx="10"
       cy="-0.99844134"
       fx="10"
       fy="-0.99844134"
       r="8.0936928"
       gradientTransform="matrix(-1.5882452,0.14330444,-0.19981008,-2.2144978,-5.3170469,-1.5675555)"
       gradientUnits="userSpaceOnUse" />
    <linearGradient
       id="linearGradient2867-449-88-871-390-598-476-591-434-148-57-177-641-289-620-227-114-444-680-744-4-1-5">
      <stop
         id="stop5430-5-0-9"
         style="stop-color:#737373;stop-opacity:1"
         offset="0" />
      <stop
         id="stop5432-2-0-0"
         style="stop-color:#636363;stop-opacity:1"
         offset="0.26238" />
      <stop
         id="stop5434-9-6-8"
         style="stop-color:#4b4b4b;stop-opacity:1"
         offset="0.704952" />
      <stop
         id="stop5436-2-7-0"
         style="stop-color:#3f3f3f;stop-opacity:1"
         offset="1" />
    </linearGradient>
    <radialGradient
       inkscape:collect="always"
       xlink:href="#linearGradient2867-449-88-871-390-598-476-591-434-148-57-177-641-289-620-227-114-444-680-744-4-1-5"
       id="radialGradient1442"
       cx="12"
       cy="6.1523089"
       fx="12"
       fy="6.1523089"
       r="4.5459218"
       gradientTransform="matrix(-3.0796831,2.8673874e-8,-4.0962682e-8,-4.3995478,48.956198,29.067377)"
       gradientUnits="userSpaceOnUse" />
    <radialGradient
       inkscape:collect="always"
       xlink:href="#linearGradient2867-449-88-871-390-598-476-591-434-148-57-177-641-289-620-227-114-444-680-744-4-1-5"
       id="radialGradient1446"
       gradientUnits="userSpaceOnUse"
       gradientTransform="matrix(-3.0796831,2.8673874e-8,-4.0962682e-8,-4.3995478,48.956198,29.067377)"
       cx="12"
       cy="6.1523089"
       fx="12"
       fy="6.1523089"
       r="4.5459218" />
  </defs>
  <sodipodi:namedview
     pagecolor="#ffffff"
     bordercolor="#666666"
     borderopacity="1"
     objecttolerance="10"
     gridtolerance="10"
     guidetolerance="10"
     inkscape:pageopacity="0"
     inkscape:pageshadow="2"
     inkscape:window-width="1366"
     inkscape:window-height="706"
     id="namedview24"
     showgrid="true"
     inkscape:snap-global="true"
     inkscape:zoom="19.666667"
     inkscape:cx="17.561192"
     inkscape:cy="6.8261132"
     inkscape:window-x="-1"
     inkscape:window-y="-1"
     inkscape:window-maximized="0"
     inkscape:current-layer="svg22">
    <inkscape:grid
       type="xygrid"
       id="grid835" />
  </sodipodi:namedview>
  <linearGradient
     id="a">
    <stop
       offset="0"
       stop-color="#1f1f1f"
       id="stop2" />
    <stop
       offset="1"
       stop-color="#5c5c5c"
       id="stop4" />
  </linearGradient>
  <radialGradient
     id="b"
     cx="22.571428"
     cy="30.857143"
     gradientTransform="matrix(.706422 0 0 .13549598 -3.944954 16.709114)"
     gradientUnits="userSpaceOnUse"
     r="15.571428">
    <stop
       offset="0"
       id="stop7" />
    <stop
       offset="1"
       stop-opacity="0"
       id="stop9" />
  </radialGradient>
  <linearGradient
     id="c"
     gradientTransform="matrix(0.44503085,0,0,0.48489134,1.426622,-8.124373)"
     gradientUnits="userSpaceOnUse"
     x1="23.30562"
     x2="14.388516"
     xlink:href="#linearGradient2867-449-88-871-390-598-476-591-434-148-57-177-641-289-620-227-114-444-680-744-4-1-5"
     y1="24.843527"
     y2="9.5902243" />
  <linearGradient
     id="d"
     gradientUnits="userSpaceOnUse"
     x1="15"
     x2="6"
     xlink:href="#linearGradient2867-449-88-871-390-598-476-591-434-148-57-177-641-289-620-227-114-444-680-744-4-1-5"
     y1="13"
     y2="4" />
  <path
     style="opacity:1;fill:url(#radialGradient1446);fill-opacity:1"
     d="M 12.632812 3.5390625 C 10.948605 3.5390625 9.6086238 3.9613025 8.6425781 4.8007812 A 0.68602728 0.68602728 0 0 0 8.6386719 4.8027344 C 7.6900898 5.6344457 7.2011718 6.8088084 7.2011719 8.2519531 C 7.2011719 8.5228549 7.2280334 8.7660938 7.2617188 9 L 10.832031 9 A 0.68602728 0.68602728 0 0 0 10.78125 8.7402344 C 10.695226 8.5306612 10.648437 8.3317313 10.648438 8.140625 C 10.648438 7.6854445 10.83171 7.2637957 11.134766 6.9902344 C 11.454008 6.7020618 11.910035 6.5566405 12.523438 6.5566406 C 13.045234 6.5566404 13.577275 6.6266089 14.115234 6.765625 A 0.68602728 0.68602728 0 0 0 14.119141 6.765625 A 0.68602728 0.68602728 0 0 0 14.125 6.7675781 C 14.491159 6.8617294 15.067062 7.0869582 15.650391 7.3164062 A 0.68602728 0.68602728 0 0 0 16.539062 6.9316406 L 17.160156 5.3769531 A 0.68602728 0.68602728 0 0 0 16.78125 4.4882812 C 16.199827 4.2515951 15.601664 4.0064492 15.003906 3.8457031 L 15.001953 3.8457031 C 14.25308 3.6427495 13.462238 3.5390625 12.632812 3.5390625 z M 13.091797 14 A 0.68602728 0.68602728 0 0 0 13.332031 14.521484 C 13.521627 14.682876 13.670637 14.838085 13.769531 14.982422 A 0.68602728 0.68602728 0 0 0 13.773438 14.986328 C 13.93147 15.21228 14.023438 15.505695 14.023438 15.802734 C 14.023438 16.332633 13.804688 16.792445 13.458984 17.046875 A 0.68602728 0.68602728 0 0 0 13.455078 17.048828 C 13.081054 17.327337 12.557137 17.464844 11.835938 17.464844 C 11.236143 17.464844 10.568469 17.365246 9.8339844 17.166016 C 9.3733359 17.039839 8.6661529 16.740401 7.9707031 16.449219 A 0.68602728 0.68602728 0 0 0 7.0195312 17.082031 L 7.0195312 18.972656 A 0.68602728 0.68602728 0 0 0 7.4238281 19.597656 C 8.6400427 20.145976 10.015347 20.458983 11.576172 20.458984 C 13.419763 20.458982 14.87143 20.028592 15.912109 19.164062 C 16.94623 18.310989 17.482422 17.106193 17.482422 15.634766 C 17.482422 15.032209 17.382958 14.490836 17.208984 14 L 13.091797 14 z "
     id="path1444" />
  <ellipse
     cx="11.999999"
     cy="20.890133"
     fill="url(#b)"
     opacity=".2"
     rx="10.999999"
     ry="2.109867"
     id="ellipse14" />
  <path
     d="m12.632812 4.2246094c-1.572811 0-2.7232603.3831337-3.5410151 1.09375-.8116595.7116584-1.2050781 1.62828-1.2050781 2.9335937 0 .2687406.024563.51456.0625.7480469h2.1972652c-.111021-.2704716-.1835934-.558108-.1835934-.859375 0-.6380406.2551294-1.2469463.7128904-1.6601562.477269-.4308199 1.121768-.609375 1.847657-.609375.582905-.0000001 1.173232.077891 1.763671.2304687h.002c.444105.1134823 1.029501.3465456 1.613282.5761719l.621047-1.5546875c-.580767-.2364191-1.160828-.470599-1.699219-.6152344-.688825-.186845-1.418308-.2832031-2.191407-.2832031zm1.144532 9.7753906c.215467.183414.409574.376252.558594.59375.243581.348265.373046.775397.373046 1.208984 0 .719429-.298167 1.395338-.84375 1.796875-.532743.396696-1.220926.550782-2.029296.550782-.674797 0-1.401585-.110674-2.1816411-.322266h-.00195c-.5454626-.149408-1.2568907-.457035-1.9472688-.746094v1.890625c1.129846.509381 2.4009099.800782 3.8710939.800782 1.738214-.000001 3.012262-.400542 3.898437-1.136719l.002-.002c.897143-.740077 1.320313-1.674577 1.320313-3 0-.63227-.113376-1.164202-.316406-1.634766z"
     fill="url(#d)"
     opacity=".66"
     id="path16"
     style="fill-opacity:1;fill:url(#radialGradient1442);opacity:1" />
  <path
     d="m3.4947727 12.505231v-2.010455h17.0104543v1.961775c-5.670149.01665-11.3403018.03265-17.0104544.04868z"
     style="opacity:1;stroke:#000000;stroke-width:0.99;stroke-linecap:round;stroke-linejoin:round;fill:url(#c);fill-opacity:1;stroke-opacity:0.43137255"
     id="path18" />
  <path
     d="m -15.701,16.7 h -6.71705 l -1.1564,2.9 h -3.092379 l 6.334501,-15.2 h 2.877728 l 6.1092,15.2 h -3.2337 z m -5.919,-2.3 h 5.0456 l -2.25115,-6.8762676 z"
     style="opacity:1;fill:url(#radialGradient871);fill-opacity:1;stroke:#000000;stroke-width:0.866;stroke-linecap:round;stroke-linejoin:round;stroke-opacity:0.43137255"
     id="path14"
     inkscape:connector-curvature="0" />
  <path
     d="m12.632812 2.9902344c-1.764467 0-3.2308813.4435931-4.3124995 1.3847656v.00195c-1.0734386.9411917-1.6269531 2.2915602-1.6269531 3.875 0 .2569708.020658.504934.050781.7480469h1.2050782c-.037937-.2334869-.0625-.4793063-.0625-.7480469 0-1.3053137.3934186-2.2219353 1.2050781-2.9335937.8177548-.7106163 1.9682033-1.09375 3.5410153-1.09375.773098 0 1.502581.096358 2.191407.2832031.538391.1446354 1.118452.3788153 1.699219.6152344l-.621094 1.5546906c-.583781-.2296263-1.169178-.4626896-1.613282-.5761719h-.002c-.590292-.1525781-1.180718-.2304688-1.763624-.2304687-.725888 0-1.370388.178555-1.847657.609375-.457762.4132099-.7128904 1.0221154-.7128904 1.6601562 0 .3012672.072571.5889035.1835934.859375h1.494141c-.173587-.1434005-.302962-.2803808-.367187-.3847656-.073627-.1261537-.115235-.2674419-.115235-.4746094 0-.3447309.08416-.5312158.302735-.7285156.199063-.1796899.522062-.3066406 1.0625-.3066406.481332.0000001.972022.065295 1.474609.1953124h.002c.508767.1299059 1.18686.3685778 2.011719.71875l.550734.234375 1.53125-3.8222656-.539062-.2402344c-.837652-.3758615-1.647284-.6706712-2.429688-.8808593-.793352-.2151981-1.624817-.3203125-2.492188-.3203125zm-1.220703 11.0097656c.640361.328941 1.14302.604932 1.339844.742188h.002l.0039.002c.29341.200255.491332.394273.607422.564453l.002.0059.002.0039c.100126.142461.146484.279173.146484.484375 0 .426183-.09731.613577-.341797.792969h-.002l-.002.002c-.243881.182262-.676186.316406-1.333984.316406-.547811 0-1.175687-.08924-1.8769536-.279296h-.00195c-.6864443-.188345-1.5622143-.523654-2.607465-1.005989l-.8378906-.386718v4.552734l.3339843.169922c1.3868197.701579 2.9719861 1.044922 4.7304689 1.044922 1.916861 0 3.489271-.446866 4.646484-1.408204 1.159834-.957401 1.767578-2.344478 1.767578-3.966796 0-.578759-.07746-1.12581-.230468-1.634766h-1.279297c.203029.470564.316406 1.002496.316406 1.634766 0 1.325423-.42317 2.259923-1.320313 3l-.002.002c-.886175.736177-2.160223 1.136718-3.898437 1.136719-1.470184 0-2.7412478-.291401-3.8710939-.800782v-1.890625c.6903781.289058 1.4018061.596687 1.9472657.746094h.00195c.7800562.211591 1.5068452.322266 2.1816412.322266.80837 0 1.496553-.154088 2.029296-.550782.545582-.401538.84375-1.077447.84375-1.796875 0-.433588-.127509-.860719-.371093-1.208984-.148969-.217545-.34503-.410383-.560497-.593797z"
     opacity=".66"
     id="path20"
     style="opacity:1;fill-opacity:0.43137255;fill:#000000;stroke:none;stroke-opacity:1" />
</svg>

<svg xmlns="http://www.w3.org/2000/svg" xmlns:xlink="http://www.w3.org/1999/xlink" height="24" width="24"><defs><linearGradient id="a"><stop offset="0" stop-color="#737373"/><stop offset=".262" stop-color="#636363"/><stop offset=".705" stop-color="#4b4b4b"/><stop offset="1" stop-color="#3f3f3f"/></linearGradient><radialGradient xlink:href="#a" id="d" cx="12" cy="6.152" fx="12" fy="6.152" r="4.546" gradientTransform="matrix(-3.07968 0 0 -4.39955 48.956 29.067)" gradientUnits="userSpaceOnUse"/><radialGradient xlink:href="#a" id="b" gradientUnits="userSpaceOnUse" gradientTransform="matrix(-3.07968 0 0 -4.39955 48.956 29.067)" cx="12" cy="6.152" fx="12" fy="6.152" r="4.546"/></defs><radialGradient id="c" cx="22.571" cy="30.857" gradientTransform="matrix(.70642 0 0 .1355 -3.945 16.71)" gradientUnits="userSpaceOnUse" r="15.571"><stop offset="0"/><stop offset="1" stop-opacity="0"/></radialGradient><linearGradient id="e" gradientTransform="matrix(.44503 0 0 .4849 1.427 -8.124)" gradientUnits="userSpaceOnUse" x1="23.306" x2="14.389" xlink:href="#a" y1="24.844" y2="9.59"/><path d="M12.633 3.54c-1.684 0-3.024.42-3.99 1.26a.686.686 0 0 0-.004.003c-.95.83-1.44 2.006-1.44 3.45 0 .27.028.513.062.747h3.57a.686.686 0 0 0-.05-.26c-.087-.21-.134-.408-.134-.6 0-.455.184-.876.487-1.15.32-.288.775-.433 1.388-.433.522 0 1.054.07 1.592.21a.686.686 0 0 0 .004 0 .686.686 0 0 0 .005 0c.366.095.942.32 1.525.55a.686.686 0 0 0 .89-.385l.62-1.555a.686.686 0 0 0-.38-.89c-.58-.235-1.178-.48-1.776-.64h-.002c-.75-.204-1.54-.308-2.37-.308zm.46 10.46a.686.686 0 0 0 .24.52c.19.163.338.318.437.462a.686.686 0 0 0 .003.004c.158.226.25.52.25.817 0 .53-.218.99-.564 1.244a.686.686 0 0 0-.005.002c-.374.277-.898.415-1.62.415-.6 0-1.267-.1-2-.3-.462-.125-1.17-.425-1.864-.716a.686.686 0 0 0-.95.632v1.89a.686.686 0 0 0 .404.626c1.216.548 2.59.86 4.152.86 1.844 0 3.295-.43 4.336-1.294 1.034-.853 1.57-2.058 1.57-3.53 0-.602-.1-1.143-.273-1.634H13.09z" fill="url(#b)"/><ellipse cx="12" cy="20.89" fill="url(#c)" opacity=".2" rx="11" ry="2.11"/><path d="M12.633 4.225c-1.573 0-2.723.383-3.54 1.093-.813.712-1.206 1.63-1.206 2.934 0 .27.024.515.062.748h2.196c-.11-.27-.183-.558-.183-.86 0-.637.255-1.246.713-1.66.477-.43 1.122-.61 1.847-.61.583 0 1.174.08 1.764.232h.002c.443.113 1.03.346 1.612.576l.62-1.555c-.58-.236-1.16-.47-1.698-.615-.69-.187-1.418-.283-2.19-.283zM13.777 14c.216.183.41.376.56.594.243.348.372.775.372 1.21 0 .718-.3 1.394-.845 1.796-.533.396-1.22.55-2.03.55-.674 0-1.4-.11-2.18-.322H9.65c-.545-.15-1.257-.457-1.947-.746v1.89c1.13.51 2.4.8 3.87.8 1.74 0 3.013-.4 3.9-1.135l.002-.002c.897-.74 1.32-1.675 1.32-3 0-.633-.113-1.164-.316-1.635z" fill="url(#d)"/><path d="M3.495 12.505v-2.01h17.01v1.962l-17.01.048z" stroke="#000" stroke-width=".99" stroke-linecap="round" stroke-linejoin="round" fill="url(#e)" stroke-opacity=".431"/><path d="M12.633 2.99c-1.765 0-3.23.444-4.313 1.385v.002c-1.073.94-1.627 2.292-1.627 3.875 0 .257.02.505.05.748H7.95c-.04-.233-.063-.48-.063-.748 0-1.305.393-2.222 1.205-2.934.818-.71 1.968-1.093 3.54-1.093.774 0 1.503.096 2.192.283.54.144 1.12.38 1.7.615L15.9 6.678c-.583-.23-1.17-.463-1.613-.576h-.003c-.59-.153-1.18-.23-1.764-.23-.725 0-1.37.178-1.847.608-.458.414-.713 1.023-.713 1.66 0 .302.072.59.183.86h1.495c-.173-.143-.302-.28-.367-.385-.073-.126-.115-.267-.115-.474 0-.344.084-.53.303-.728.2-.18.523-.307 1.063-.307.482 0 .972.066 1.475.196H14c.51.13 1.187.37 2.012.72l.55.234 1.532-3.822-.54-.24c-.837-.376-1.647-.67-2.43-.88-.792-.217-1.624-.322-2.49-.322zM11.413 14c.64.33 1.142.605 1.34.742l.005.002c.293.2.49.394.607.565l.002.005.002.003c.1.143.146.28.146.485 0 .426-.098.613-.342.793h-.002l-.002.002c-.244.182-.676.316-1.334.316-.548 0-1.176-.09-1.877-.28h-.003c-.686-.187-1.562-.523-2.607-1.005l-.838-.388v4.553l.334.17c1.387.7 2.972 1.045 4.73 1.045 1.917 0 3.49-.447 4.647-1.408 1.16-.958 1.767-2.345 1.767-3.967 0-.58-.077-1.126-.23-1.635h-1.28c.203.47.317 1.002.317 1.635 0 1.325-.423 2.26-1.32 3l-.002.002c-.887.736-2.16 1.136-3.9 1.136-1.47 0-2.74-.29-3.87-.8v-1.89c.69.288 1.402.596 1.947.745h.002c.78.212 1.507.322 2.182.322.808 0 1.496-.154 2.03-.55.545-.402.843-1.078.843-1.797 0-.434-.13-.86-.372-1.21-.15-.217-.345-.41-.56-.593z" fill-opacity=".431"/></svg>
